packages/blockchain-info-components/src/Images/img/bank-empty.svg

<svg fill="none" height="24" viewBox="0 0 24 24" width="24" xmlns="http://www.w3.org/2000/svg"><path d="m4.89474 10.5v7h2.8421v-7zm5.68416 0v7h2.8422v-7zm-7.5789 12h18v-3h-18zm13.2632-12v7h2.8421v-7zm-4.2632-9-9 5v2h18v-2z" fill="#121d33"/></svg>

<svg width="24" height="24" viewBox="0 0 24 24" fill="none" xmlns="http://www.w3.org/2000/svg">
<path d="M4.89474 10.5V17.5H7.73684V10.5H4.89474ZM10.5789 10.5V17.5H13.4211V10.5H10.5789ZM3 22.5H21V19.5H3V22.5ZM16.2632 10.5V17.5H19.1053V10.5H16.2632ZM12 1.5L3 6.5V8.5H21V6.5L12 1.5Z" fill="#121D33"/>
</svg>
